X: 127
T:Raging River, The
M:C|
L:1/8
C:Linda Hickman
R:Reel
K:EMin
EFGA BedB|AGFG FDDF|EFGA Bdeg|fedf e3d|!
e=fed cBAc|Bgdc BGGF|(3EFG Ad BAGB|1AGFG E3F:|2AGFG E3z|!
|:eB~B2 GBeg|fd^cd Adfa|ge (3fed efgb|(3agf (3gfe (3fed ef|!
gBeg fAdf|egdc BAGF|(3EFG Ad BAGB|1AGFG E3z:|2AGFG E3F|]!
